X: 03
T: the Irish Recruit
%%VWML:Button1809-2292a-p2-0
F:http://www.vwml.org/record/Button1809/2292a/p2
B: "Twenty Four Country Dances with Figures for the Year 1809", Button & Whitaker, p.2 #1
F: http://www.vwml.org/browse/browse-collections-dance-tune-books/browse-button1809
Z: 2014 John Chambers <jc:trillian.mit.edu>
M: 9/8
L: 1/8
K: G
% - - - - - - - - - - - - - - - - - - - - - - - - - - - - -
|:\
d2B d2B gfe | d2B dcB ABc |\
dcB dcB gfe | dcB {B}AGA G3 H:|
A2c {B}AGA {B}AGA | B2d {c}BAB {c}BAB |\
dcB dcB gfe | fad {f}ede dB"_D.C."c |]
% - - - - - - - - - - Dance description - - - - - - - - - -
W:
W:Lead twice down the mid: up again,
W:hands 4 round, right & left at top.
W:
T: Lady Roslyn's Rout
%R: reel
B: "Twenty Four Country Dances with Figures for the Year 1809", Button & Whitaker, p.2 #2
F: http://www.vwml.org/browse/browse-collections-dance-tune-books/browse-button1809
Z: 2014 John Chambers <jc:trillian.mit.edu>
M: C|
L: 1/8
K: D
% - - - - - - - - - - - - - - - - - - - - - - - - - - - - -
|:\
{de}f2(ed) (AF)(Ad) | (fe)(fg) (ad)(ef) | (ag)(fe) (fa)(fd) | (BG)(ed) (cA)(Bc) |
{de}f2(ed) (AF)(Ad) | (fe)(fg) (ad)(ef) | (ag)(fe) (fa)(fd) | ({c}BA)(Bc) d2z2 :|
|:\
{cd}e2(dc) (df)(fa) | (ge)(fg) (fa)(fd) | {cd}e2(dc) (df)(af) | (ec)(dB) (Ac)(de) |
{de}f2 (ed) (AF)(Ad) | (fe)(fg) (ad)(ef) | {a}g2(fe) (fa)(fd) | ({c}BA)(Bc) d2z2 :|
% - - - - - - - - - - Dance description - - - - - - - - - -
W:
W:Cast off 2 Cu: up again, down the mid: up again, to the top,
W:swing corners, foot it & lead outsides.
W:
